X:29
T: MAEDCHEN HAST DU LUST ZU TRUTZEN
N: E0644
O: Europa, Mitteleuropa, Deutschland, Berlin
R: Liebes - Lied
M: 2/4
L: 1/16
K: F
 | F2C2A2F2 | D2B,2B,2B,2
B4E4 | F4z4
F2C2A2F2 | D2B,2B,2B,2
B4E4 | F4z4
c2c2cdcB | A2A2A2A2
c2c2cdcB | A2A2A2A2
c2A2dcBA | G2C2C2C2
B4E4 | F4z4

